logos/gridsome.svg

<svg width="72" height="72" viewBox="0 0 72 72" fill="none" xmlns="http://www.w3.org/2000/svg"> <path opacity="0.6" fill-rule="evenodd" clip-rule="evenodd" d="M36.3671 70.9595C57.5468 70.2011 72.2721 51.7913 70.9998 35.3217C70.7047 31.9009 67.6794 29.2496 64.2618 29.414C60.8442 29.5784 58.2065 32.4899 58.3705 35.917C58.8493 45.9265 49.8798 58.1555 35.7216 58.5488C35.5494 58.5536 35.3792 58.5654 35.2109 58.5839C35.303 58.5828 35.3952 58.5812 35.4873 58.5789C38.9078 58.4945 41.7489 61.2067 41.8331 64.6367C41.9125 67.8721 39.5106 70.5905 36.3671 70.9595Z" fill="url(#paint0_linear)"/> <path d="M48.7852 35.7559C48.7852 32.2432 51.6504 29.3955 55.1848 29.3955L64.5115 29.3955C68.046 29.3955 70.9998 32.2432 70.9998 35.7559C70.9998 39.2687 68.046 42.1163 64.5115 42.1163H55.1848C51.6504 42.1163 48.7852 39.2687 48.7852 35.7559Z" fill="white"/> <path d="M29.2158 35.7652C29.2158 32.2473 32.0629 29.3955 35.571 29.3955C39.0792 29.3955 41.9263 32.2473 41.9263 35.7652C41.9263 39.2831 39.0792 42.1349 35.571 42.1349C32.0629 42.1349 29.2158 39.2831 29.2158 35.7652Z" fill="white"/> <path fill-rule="evenodd" clip-rule="evenodd" d="M41.7503 6.00479C41.8923 9.4329 39.236 12.3273 35.8174 12.4697C21.0597 13.0843 12.0503 24.6833 12.4888 35.6967C12.6253 39.125 10.02 42.0152 6.60113 42.1521C3.18229 42.289 0.175774 39.5221 0.0392646 36.0938C-0.675367 18.1464 14.2686 0.403857 35.3033 0.0554155C38.7219 -0.0869524 41.6083 2.57667 41.7503 6.00479Z" fill="white"/> <path opacity="0.7" fill-rule="evenodd" clip-rule="evenodd" d="M0.0205078 35.4365C0.108735 57.1168 17.8525 71.4427 35.7926 71C39.2131 70.9156 41.9178 68.0666 41.8336 64.6366C41.7495 61.2065 38.9083 58.4944 35.4878 58.5788C24.2411 58.8563 12.9813 49.9998 12.489 36.2163C12.358 39.4124 9.84611 42.022 6.60156 42.1519C3.18272 42.2888 0.176205 39.5219 0.0396953 36.0936C0.0309722 35.8745 0.0245821 35.6555 0.0205078 35.4365Z" fill="url(#paint1_linear)"/> <defs> <linearGradient id="paint0_linear" x1="68.1479" y1="42.7974" x2="-31.9505" y2="69.6305" gradientUnits="userSpaceOnUse"> <stop stop-color="white" stop-opacity="0.89"/> <stop offset="1" stop-color="white" stop-opacity="0.51"/> </linearGradient> <linearGradient id="paint1_linear" x1="33.2387" y1="60.9936" x2="-19.9588" y2="3.55308" gradientUnits="userSpaceOnUse"> <stop stop-color="white"/> <stop offset="1" stop-color="white" stop-opacity="0.8"/> </linearGradient> </defs> </svg>

<svg width="72" height="72" fill="none" xmlns="http://www.w3.org/2000/svg"><path opacity=".6" fill-rule="evenodd" clip-rule="evenodd" d="M36.367 70.96C57.547 70.2 72.272 51.79 71 35.322c-.295-3.421-3.32-6.072-6.738-5.908-3.418.164-6.056 3.076-5.892 6.503.48 10.01-8.49 22.239-22.648 22.632a6.27 6.27 0 0 0-.511.035l.276-.005c3.42-.084 6.262 2.628 6.346 6.058a6.208 6.208 0 0 1-5.466 6.323z" fill="url(#paint0_linear)"/><path d="M48.785 35.756c0-3.513 2.865-6.36 6.4-6.36h9.326c3.535 0 6.489 2.847 6.489 6.36 0 3.513-2.954 6.36-6.489 6.36h-9.326c-3.535 0-6.4-2.847-6.4-6.36zM29.216 35.765c0-3.518 2.847-6.37 6.355-6.37 3.508 0 6.355 2.852 6.355 6.37 0 3.518-2.847 6.37-6.355 6.37-3.508 0-6.355-2.852-6.355-6.37z" fill="#fff"/><path fill-rule="evenodd" clip-rule="evenodd" d="M41.75 6.005c.142 3.428-2.514 6.322-5.933 6.465-14.757.614-23.767 12.213-23.328 23.227.136 3.428-2.469 6.318-5.888 6.455-3.419.137-6.425-2.63-6.562-6.058C-.675 18.146 14.27.404 35.303.055c3.419-.142 6.305 2.522 6.447 5.95z" fill="#fff"/><path opacity=".7" fill-rule="evenodd" clip-rule="evenodd" d="M.02 35.437C.11 57.117 17.853 71.442 35.794 71c3.42-.084 6.125-2.933 6.04-6.363-.084-3.43-2.925-6.143-6.345-6.058-11.247.277-22.507-8.58-22.999-22.363-.131 3.196-2.643 5.806-5.887 5.936-3.42.137-6.426-2.63-6.562-6.058a31.02 31.02 0 0 1-.02-.657z" fill="url(#paint1_linear)"/><defs><linearGradient id="paint0_linear" x1="68.148" y1="42.797" x2="-31.951" y2="69.63" gradientUnits="userSpaceOnUse"><stop stop-color="#fff" stop-opacity=".89"/><stop offset="1" stop-color="#fff" stop-opacity=".51"/></linearGradient><linearGradient id="paint1_linear" x1="33.239" y1="60.994" x2="-19.959" y2="3.553" gradientUnits="userSpaceOnUse"><stop stop-color="#fff"/><stop offset="1" stop-color="#fff" stop-opacity=".8"/></linearGradient></defs></svg>
